X:23
T:Arrival of the Queen of Sheba
C:Handel, G.F.
M:2/4
L:1/16
Q:1/4=132
K:D
|:ABAF ABAF|GFED EFGE|FGAB cBAG|F8|
ABcd efge|fgaf gfed|cBAB cAFA|D8:|

